resources/svg/artboard.svg

<svg width="15" height="15" viewBox="0 0 15 15" fill="none" xmlns="http://www.w3.org/2000/svg">
<path d="M4 0V2H5V0H4Z" fill="black"/>
<path d="M10 0V2H11V0H10Z" fill="black"/>
<path d="M2 5H0V4H2V5Z" fill="black"/>
<path d="M0 11H2V10H0V11Z" fill="black"/>
<path d="M15 5H13V4H15V5Z" fill="black"/>
<path d="M13 11H15V10H13V11Z" fill="black"/>
<path d="M4 15V13H5V15H4Z" fill="black"/>
<path d="M10 13V15H11V13H10Z" fill="black"/>
<path d="M4.5 4C4.22386 4 4 4.22386 4 4.5V10.5C4 10.7761 4.22386 11 4.5 11H10.5C10.7761 11 11 10.7761 11 10.5V4.5C11 4.22386 10.7761 4 10.5 4H4.5Z" fill="black"/>
</svg>

<svg viewBox="0 0 15 15" fill="none" xmlns="http://www.w3.org/2000/svg" fill="currentColor"><path d="M4 0v2h1V0H4zm6 0v2h1V0h-1zM2 5H0V4h2v1zm-2 6h2v-1H0v1zm15-6h-2V4h2v1zm-2 6h2v-1h-2v1zm-9 4v-2h1v2H4zm6-2v2h1v-2h-1zM4.5 4a.5.5 0 00-.5.5v6a.5.5 0 00.5.5h6a.5.5 0 00.5-.5v-6a.5.5 0 00-.5-.5h-6z" fill="currentColor"/></svg>
